gama.ui.shared/icons_svg/dark/layer/layer.image.svg

<svg height="24.75" viewBox="-706.358 -3651.197 24.75 24.75" width="24.75" xmlns="http://www.w3.org/2000/svg"><g fill="none"><path d="m-702.1427-3650.8223h16.32c2.12075 0 3.84 1.7193 3.84 3.84v16.32c0 2.1208-1.71925 3.84-3.84 3.84h-16.32c-2.1208 0-3.84-1.7192-3.84-3.84v-16.32c0-2.1207 1.7192-3.84 3.84-3.84z" fill="#4288c4"/><path d="m-701.9827-3643.635c0-1.208.8954-2.1873 2-2.1873h12c1.10455 0 2 .9793 2 2.1873v9.625c0 1.2083-.89545 2.1877-2 2.1877h-12c-1.1046 0-2-.9794-2-2.1877zm.8 0v9.625c0 .725.5372 1.3127 1.2 1.3127h12c.6627 0 1.2-.5877 1.2-1.3127v-9.625c0-.7247-.5373-1.3123-1.2-1.3123h-12c-.6628 0-1.2.5876-1.2 1.3123zm10.4.4377h1.6c.4418 0 .8.3917.8.875v1.75c0 .4833-.3582.875-.8.875h-1.6c-.44185 0-.8-.3917-.8-.875v-1.75c0-.4833.35815-.875.8-.875zm0 .875v1.75h1.6v-1.75zm-10.5172 6.8718c-.1562.1709-.40946.1709-.5657 0-.1562-.1708-.1562-.4478 0-.6185l4-4.375c.15624-.171.4095-.171.5657 0l4.5172 4.9405 2.1171-2.3155c.15624-.171.4095-.171.5657 0l3.6 3.9373c.1562.1707.1562.4477 0 .6187s-.40946.171-.5657 0l-3.3171-3.628-2.1172 2.3155c-.1562.1709-.40946.1709-.5657 0l-4.5171-4.9405z" fill="#fff"/></g></svg>

<?xml version="1.0" encoding="UTF-8" standalone="no"?>
<!DOCTYPE svg PUBLIC "-//W3C//DTD SVG 1.1//EN" "http://www.w3.org/Graphics/SVG/1.1/DTD/svg11.dtd">
<svg xmlns="http://www.w3.org/2000/svg" xmlns:xl="http://www.w3.org/1999/xlink" version="1.1" xmlns:dc="http://purl.org/dc/elements/1.1/" viewBox="-706.3577 -3651.1973 24.75 24.75" width="24.75" height="24.75">
  <defs/>
  <g id="SOURCES" stroke-opacity="1" fill="none" stroke="none" fill-opacity="1" stroke-dasharray="none">
    <title>SOURCES</title>
    <g id="SOURCES_Dark">
      <title>Dark</title>
      <g id="Graphic_11587">
        <title>views/view.other</title>
        <path d="M -702.1427 -3650.8223 L -685.8227 -3650.8223 C -683.70195 -3650.8223 -681.9827 -3649.103 -681.9827 -3646.9823 L -681.9827 -3630.6623 C -681.9827 -3628.5415 -683.70195 -3626.8223 -685.8227 -3626.8223 L -702.1427 -3626.8223 C -704.2635 -3626.8223 -705.9827 -3628.5415 -705.9827 -3630.6623 L -705.9827 -3646.9823 C -705.9827 -3649.103 -704.2635 -3650.8223 -702.1427 -3650.8223 Z" fill="#4288c4"/>
      </g>
      <g id="Graphic_11586">
        <path d="M -701.9827 -3643.635 C -701.9827 -3644.843 -701.0873 -3645.8223 -699.9827 -3645.8223 L -687.9827 -3645.8223 C -686.87815 -3645.8223 -685.9827 -3644.843 -685.9827 -3643.635 L -685.9827 -3634.01 C -685.9827 -3632.8017 -686.87815 -3631.8223 -687.9827 -3631.8223 L -699.9827 -3631.8223 C -701.0873 -3631.8223 -701.9827 -3632.8017 -701.9827 -3634.01 Z M -701.1827 -3643.635 L -701.1827 -3634.01 C -701.1827 -3633.285 -700.6455 -3632.6973 -699.9827 -3632.6973 L -687.9827 -3632.6973 C -687.32 -3632.6973 -686.7827 -3633.285 -686.7827 -3634.01 L -686.7827 -3643.635 C -686.7827 -3644.3597 -687.32 -3644.9473 -687.9827 -3644.9473 L -699.9827 -3644.9473 C -700.6455 -3644.9473 -701.1827 -3644.3597 -701.1827 -3643.635 Z M -690.7827 -3643.1973 L -689.1827 -3643.1973 C -688.7409 -3643.1973 -688.3827 -3642.8056 -688.3827 -3642.3223 L -688.3827 -3640.5723 C -688.3827 -3640.089 -688.7409 -3639.6973 -689.1827 -3639.6973 L -690.7827 -3639.6973 C -691.22455 -3639.6973 -691.5827 -3640.089 -691.5827 -3640.5723 L -691.5827 -3642.3223 C -691.5827 -3642.8056 -691.22455 -3643.1973 -690.7827 -3643.1973 Z M -690.7827 -3642.3223 L -690.7827 -3640.5723 L -689.1827 -3640.5723 L -689.1827 -3642.3223 Z M -701.2999 -3635.4505 C -701.4561 -3635.2796 -701.70936 -3635.2796 -701.8656 -3635.4505 C -702.0218 -3635.6213 -702.0218 -3635.8983 -701.8656 -3636.069 L -697.8656 -3640.444 C -697.70936 -3640.615 -697.4561 -3640.615 -697.2999 -3640.444 L -692.7827 -3635.5035 L -690.6656 -3637.819 C -690.50936 -3637.99 -690.2561 -3637.99 -690.0999 -3637.819 L -686.4999 -3633.8817 C -686.3437 -3633.711 -686.3437 -3633.434 -686.4999 -3633.263 C -686.6561 -3633.092 -686.90936 -3633.092 -687.0656 -3633.263 L -690.3827 -3636.891 L -692.4999 -3634.5755 C -692.6561 -3634.4046 -692.90936 -3634.4046 -693.0656 -3634.5755 L -697.5827 -3639.516 Z" fill="white"/>
      </g>
    </g>
  </g>
</svg>
